X:2162
T:Bright Vision
T:Aisling Gheal
M:4/4
L:1/8
Q:80
S:Jeffrey S. Erickson, Ir-Trad, 4/97
R:air
B:The Irish Fiddle Book, Matt Cranitch
D:Treasury of Irish Song (Shanachie)
K:D
F3G BA2A|d3d ef2{af}e|d3 (3d/2c/2A/2 F3F|A3F G(3A/2G/2F/2 EF|D3D D8D|
F3G B{dB}A2A|d2 de f3{af}e|d4 zD FG|A3F G(3A/2G/2F/2 EF|D3D D8 A cd|
e3f g{ag}f de/2d/2|de f3 A{d} AA|d3e f>{gf}e dc|d4 zA BA|d3d E>GFE|D4 zD
FG|A3F G(3A/2G/2F/2 EF|{DG}D3D D4


